icons/screen-normal-24.svg

<svg xmlns="http://www.w3.org/2000/svg" width="24" height="24" viewBox="0 0 24 24">
  <defs/>
  <path d="M15.75,3 C16.164,3 16.5,3.336 16.5,3.75 L16.5,7.25 C16.5,7.388 16.612,7.5 16.75,7.5 L20.25,7.5 C20.664,7.5 21,7.836 21,8.25 C21,8.664 20.664,9 20.25,9 L16.75,9 C15.784,9 15,8.216 15,7.25 L15,3.75 C15,3.336 15.336,3 15.75,3 Z M8.25,3 C8.664,3 9,3.336 9,3.75 L9,7.25 C9,8.216 8.216,9 7.25,9 L3.75,9 C3.336,9 3,8.664 3,8.25 C3,7.836 3.336,7.5 3.75,7.5 L7.25,7.5 C7.388,7.5 7.5,7.388 7.5,7.25 L7.5,3.75 C7.5,3.336 7.836,3 8.25,3 Z M3,15.75 C3,15.336 3.336,15 3.75,15 L7.25,15 C8.216,15 9,15.784 9,16.75 L9,20.25 C9,20.664 8.664,21 8.25,21 C7.836,21 7.5,20.664 7.5,20.25 L7.5,16.75 C7.5,16.612 7.388,16.5 7.25,16.5 L3.75,16.5 C3.336,16.5 3,16.164 3,15.75 Z M15,16.75 C15,15.784 15.784,15 16.75,15 L20.25,15 C20.664,15 21,15.336 21,15.75 C21,16.164 20.664,16.5 20.25,16.5 L16.75,16.5 C16.612,16.5 16.5,16.612 16.5,16.75 L16.5,20.25 C16.5,20.664 16.164,21 15.75,21 C15.336,21 15,20.664 15,20.25 Z"/>
</svg>

<svg xmlns="http://www.w3.org/2000/svg" width="24" height="24" viewBox="0 0 24 24"><path fill-rule="evenodd" d="M8.25 3a.75.75 0 01.75.75v3.5A1.75 1.75 0 017.25 9h-3.5a.75.75 0 010-1.5h3.5a.25.25 0 00.25-.25v-3.5A.75.75 0 018.25 3zm7.5 0a.75.75 0 01.75.75v3.5c0 .138.112.25.25.25h3.5a.75.75 0 010 1.5h-3.5A1.75 1.75 0 0115 7.25v-3.5a.75.75 0 01.75-.75zM3 15.75a.75.75 0 01.75-.75h3.5c.966 0 1.75.784 1.75 1.75v3.5a.75.75 0 01-1.5 0v-3.5a.25.25 0 00-.25-.25h-3.5a.75.75 0 01-.75-.75zm12 1c0-.966.784-1.75 1.75-1.75h3.5a.75.75 0 010 1.5h-3.5a.25.25 0 00-.25.25v3.5a.75.75 0 01-1.5 0v-3.5z"/></svg>
